X: 1
T: Leslie's March
C: Irish, also known as "The March Of Oscar And Malvina"
O: as played by Katie McNally
Z: trans. T. Traub 2-28-2013
R: jig
M: 6/8
L: 1/8
K: D
|: A |\
"D"d3 d3 | dcB ABc | dcB AGF | "A7"G2 F E2 D |\
"Em"e3 efg | "D"fed "A"eag | "D"~f3 d2 A | "D"def "A"e2 :| 
|: z |\
"D"fed "A"eAA | "D"fed "A"eAA | "Em"gfe "Bm"fBB | "Em"gfe "Bm"fBB |\
"D"fed "A"eAA | "D"fed "A"eag | "D"~f3 d2 A | "D"def "A"e2 :| 
|: A |\
"D"dfa dfa | dfa agf | "Em"egb egb | "Em"egb bge |\
"D"dfa dfa | "D"dfa a2 g | "D"~f3 d2 A | "D"def "A"e2 :| 
